X:397
T:Miss Susan Cooper
R:Reel
C:Ronnie Cooper
O:Shetland Islands
S:ricke~11.abc
Z:Transcription:??, chords:Mike Long
M:C|
L:1/8
K:D
dc|\
"D"defd "G"B2dB|"D"A2FA DAFA|ABde fgaf|"G"g2 (3(fgf) "A"eAce|\
"D"defd "G"B2dB|
"D"A2FA DAFA|"D"ABde "G"fagf|"A"eAce "D"d2:|\
|:dc|\
"Bm"Bcde fBBc|"Bm"def^g "A"a2gf|
"A"eAce aAea|"G"g2 (3(fgf) "A"eAce|\
"D"defd "G"B2dB|"D"A2FA DAFA|"D"ABde "G"fagf|"A"eAce "D"d2:|
